X:1
T:Flowers of Edinburgh
%%composerspace
C:as played by Sally Sloane on G melodeon
%%musicspace
L:1/8
M:4/4
K:G
|:D3E G3A|BABd cBAF|G3E D2>G2|ABAF E4|
|D3E G3A|BABd e3e|dcBA GFGA|B2G2G4:|
|:G2G2 GBAG|F2F2 FAGF|EDEF GFED|B,2 E2E2GE|
|DB,G,B, D2B,D|EDEF G2GE|DCB,A, G,3A,|1B,2G,2G,2EF:|2B,2G,2G,2GE|]
